build/img/svg/icon-kinder.svg

<svg width="16" height="16" viewBox="0 0 16 16" fill="none" xmlns="http://www.w3.org/2000/svg">
<path d="M8.09633 0.251214C8.18999 0.276301 8.28448 0.299769 8.37773 0.327284C8.70732 0.425665 8.99792 0.620006 9.21026 0.884057C9.30974 1.00545 9.30308 1.13493 9.2011 1.22112C9.09911 1.3073 8.95841 1.29678 8.84769 1.17135C8.67327 0.973076 8.47305 0.817698 8.18916 0.756194C8.23777 0.871115 8.28042 0.988336 8.31695 1.10741C8.3357 1.17956 8.33872 1.25471 8.32583 1.32805C8.31293 1.4014 8.2844 1.47131 8.24207 1.5333C8.19973 1.5953 8.14453 1.648 8.08001 1.68803C8.01548 1.72806 7.94306 1.75453 7.86738 1.76575C7.68964 1.79448 7.50065 1.78396 7.38327 1.95754C7.27094 2.11798 7.22734 2.31465 7.26172 2.50582C7.32999 2.91045 7.75 3.18601 8.1775 3.10953C8.60501 3.03305 9.0067 2.61831 9.09329 2.16188C9.13991 1.9191 9.22815 1.82806 9.39008 1.85598C9.55201 1.8839 9.60238 2.01015 9.55659 2.24766C9.54119 2.32576 9.51787 2.40223 9.49665 2.4868C9.63651 2.54021 9.77346 2.58553 9.90417 2.64339C11.4897 3.34341 12.4638 4.51805 12.7997 6.18311C12.8205 6.28548 12.8617 6.32109 12.9662 6.33323C13.6739 6.41415 14.0393 6.96526 13.8325 7.62805C13.7709 7.82551 13.7076 8.02297 13.6447 8.21962C13.5028 8.65743 13.206 8.94189 12.7477 9.05963C12.7153 9.06346 12.6855 9.07857 12.6638 9.10216C12.642 9.12576 12.6298 9.15623 12.6295 9.1879C12.5096 10.0154 12.0134 10.5754 11.2803 10.9638C11.0281 11.0978 10.7742 11.2289 10.4894 11.3786C10.5902 11.4247 10.6497 11.4506 10.7076 11.4789C12.1603 12.1862 12.925 13.3285 12.9841 14.9066C13.0024 15.3921 12.6369 15.7409 12.142 15.7458C11.8506 15.749 11.5592 15.7458 11.2704 15.7458C11.0897 15.7458 10.9873 15.6571 10.9898 15.5131C10.9923 15.3691 11.0914 15.2926 11.2649 15.2918C11.5451 15.2918 11.8252 15.2918 12.1054 15.2918C12.3768 15.2918 12.5179 15.1514 12.5187 14.8908C12.5233 13.4847 11.5035 12.1502 10.1123 11.7492C10.0451 11.7322 9.97385 11.7394 9.91166 11.7695C8.60917 12.4646 7.30751 12.4379 5.99877 11.7824C5.92295 11.7473 5.83662 11.7399 5.75567 11.7618C5.07458 11.9774 4.48101 12.3967 4.05981 12.9599C4.03816 12.9882 4.01818 13.0177 3.99654 13.0461C3.89122 13.1853 3.75302 13.2201 3.63813 13.1375C3.52324 13.055 3.50201 12.9178 3.61316 12.7916C3.85126 12.5204 4.08062 12.2332 4.35993 12.007C4.65923 11.7642 5.01181 11.5841 5.35356 11.3689C5.20704 11.2851 5.03095 11.1949 4.86611 11.0885C4.59554 10.9141 4.30832 10.7542 4.07021 10.543C3.66977 10.1882 3.45914 9.72283 3.3967 9.19964C3.38588 9.1094 3.34675 9.08351 3.26807 9.06368C2.80269 8.94796 2.50173 8.66188 2.3577 8.218C2.2911 8.01164 2.22325 7.80528 2.15956 7.5977C1.97057 6.98145 2.33772 6.42184 2.99209 6.33808C3.11364 6.3223 3.15859 6.28831 3.18607 6.16328C3.59623 4.26448 4.75456 3.02226 6.66105 2.43663C6.75013 2.40952 6.7826 2.37836 6.78843 2.2853C6.82131 1.74309 7.15391 1.39875 7.70046 1.32875C7.87238 1.3069 7.89777 1.26684 7.82534 1.11065C7.74958 0.942729 7.63719 0.807987 7.44654 0.757003C7.31791 0.722205 7.22759 0.651799 7.233 0.514224C7.23882 0.368962 7.34664 0.311908 7.47984 0.283989C7.51866 0.274875 7.55688 0.263525 7.59431 0.25L8.09633 0.251214ZM6.87834 2.85623C5.60373 3.14271 4.4486 4.11059 3.9266 5.33338C3.6373 6.01074 3.51034 6.70913 3.63522 7.44596C3.72555 7.98291 3.79506 8.5235 3.85209 9.06449C3.92327 9.74022 4.26836 10.2298 4.8607 10.573C5.22535 10.7842 5.58736 11 5.94674 11.2204C6.72932 11.6986 7.57017 11.922 8.49678 11.7836C9.04458 11.7027 9.53244 11.4769 9.99533 11.1864C10.3389 10.9706 10.6898 10.7665 11.0481 10.5742C11.6529 10.2505 12.0858 9.80335 12.172 9.10981C12.2269 8.66471 12.2594 8.21638 12.3048 7.77007C12.3356 7.46943 12.4072 7.16879 12.4005 6.86936C12.3589 5.11246 11.1992 3.57567 9.48457 2.96872C9.33222 2.9145 9.24605 2.92583 9.13325 3.05248C8.78733 3.44173 8.3565 3.64971 7.80952 3.5526C7.37661 3.47653 7.07398 3.23982 6.87834 2.85744V2.85623ZM3.31886 8.60604C3.24435 7.99019 3.17191 7.38972 3.09948 6.78965C2.72693 6.82283 2.50714 7.08584 2.59372 7.40591C2.66157 7.6588 2.74483 7.90805 2.83349 8.15447C2.913 8.37702 3.07742 8.52188 3.31886 8.60726V8.60604ZM12.7002 8.60038C12.9375 8.51621 13.0973 8.36731 13.1756 8.14557C13.2609 7.90279 13.3421 7.66001 13.4108 7.41198C13.5149 7.02919 13.161 6.74555 12.9017 6.80017C12.8343 7.40105 12.7681 7.99464 12.7002 8.60159V8.60038Z" fill="white"/>
<path d="M6.89104 15.7487H3.85564C3.2483 15.7487 2.9028 15.4186 2.93194 14.8262C2.94651 14.5215 3.01228 14.2192 3.07222 13.9178C3.10677 13.7446 3.23165 13.675 3.37485 13.7179C3.50889 13.7584 3.55259 13.866 3.52221 14.0359C3.47434 14.303 3.42022 14.5709 3.39941 14.8407C3.37402 15.162 3.51721 15.2935 3.84648 15.2935H9.97848C10.0355 15.2906 10.0927 15.2916 10.1496 15.2968C10.2811 15.3158 10.3552 15.3979 10.3544 15.5234C10.3544 15.6423 10.2807 15.7208 10.1583 15.7435C10.1068 15.7498 10.0548 15.7514 10.003 15.7483L6.89104 15.7487Z" fill="white"/>
<path d="M7.99057 11.3102C7.5551 11.3098 7.13735 11.1425 6.82791 10.8447C6.51847 10.5468 6.34229 10.1424 6.33758 9.71916C6.33383 9.42539 6.51533 9.1725 6.80421 9.09521C6.84349 9.08733 6.87959 9.06859 6.90817 9.04124C6.93675 9.01389 6.95659 8.9791 6.96531 8.94105C7.0118 8.8042 7.08747 8.67843 7.18739 8.57195C7.28732 8.46548 7.40923 8.38071 7.54517 8.32318C7.72208 8.24225 7.8532 8.27422 7.9198 8.40613C7.98641 8.53804 7.9273 8.64891 7.74664 8.73469C7.47357 8.86417 7.33995 9.10128 7.37866 9.38776C7.39831 9.51597 7.46036 9.63447 7.55544 9.72536C7.65052 9.81625 7.77345 9.87458 7.90565 9.89153C8.01095 9.90954 8.1193 9.89923 8.21901 9.86172C8.31871 9.82421 8.40597 9.76092 8.47136 9.67869C8.54571 9.59677 8.59461 9.49601 8.61237 9.38814C8.63013 9.28026 8.61602 9.1697 8.57168 9.06932C8.48051 8.83827 8.50715 8.71648 8.66159 8.66469C8.81602 8.61289 8.93466 8.69099 9.01292 8.91799C9.04705 9.01672 9.08993 9.07134 9.2019 9.1025C9.47788 9.17857 9.65272 9.43632 9.65022 9.72482C9.64148 10.5972 8.89511 11.3122 7.99057 11.3102ZM6.9216 9.5484L6.86249 9.54314C6.84542 9.61962 6.81087 9.6965 6.81379 9.77176C6.83543 10.3767 7.36909 10.859 8.00306 10.8533C8.63703 10.8477 9.16569 10.3532 9.17692 9.75234C9.17692 9.68152 9.13197 9.61031 9.10782 9.53909L9.06204 9.54921C8.88804 10.0449 8.5442 10.3484 7.99889 10.3512C7.44651 10.3536 7.09935 10.0489 6.9216 9.5484V9.5484Z" fill="white"/>
<path d="M10.9369 6.9971C10.8798 7.05051 10.8224 7.14479 10.745 7.16381C10.6738 7.1812 10.5755 7.1282 10.501 7.08612C10.4644 7.06548 10.4544 6.99993 10.4315 6.95461C10.2929 6.67987 10.0639 6.52813 9.75133 6.53177C9.43247 6.53541 9.20311 6.69362 9.07157 6.97889C9.06075 7.00195 9.05492 7.02704 9.04368 7.04929C8.98207 7.17068 8.86719 7.21965 8.74772 7.17878C8.7184 7.16825 8.69156 7.15212 8.66876 7.13134C8.64597 7.11056 8.62769 7.08556 8.615 7.0578C8.60231 7.03004 8.59547 7.00009 8.59489 6.96972C8.59431 6.93935 8.59999 6.90917 8.6116 6.88097C8.75396 6.47957 9.03744 6.2198 9.45953 6.11217C9.74104 6.04107 10.0395 6.07185 10.2994 6.19876C10.5594 6.32568 10.763 6.54009 10.8723 6.80207C10.8936 6.85143 10.9073 6.90525 10.9369 6.9971Z" fill="white"/>
<path d="M6.07342 6.07129C6.31632 6.07188 6.55342 6.14351 6.75387 6.27688C6.95433 6.41024 7.10885 6.59916 7.19733 6.81905C7.2631 6.98657 7.22439 7.10674 7.08661 7.16339C6.94882 7.22004 6.83685 7.1553 6.76359 6.99061C6.63413 6.69604 6.4031 6.54066 6.07716 6.52974C5.77163 6.51962 5.51063 6.70251 5.38159 6.9983C5.30874 7.16541 5.19718 7.22692 5.05857 7.17634C4.91995 7.12576 4.88332 6.9983 4.94534 6.832C5.03161 6.60881 5.18577 6.41647 5.38729 6.28057C5.58882 6.14468 5.82815 6.07168 6.07342 6.07129V6.07129Z" fill="white"/>
</svg>

<svg width="16" height="16" fill="none" xmlns="http://www.w3.org/2000/svg"><path d="M8.096.251c.094.025.188.049.282.076.33.099.62.293.832.557.1.121.093.25-.009.337-.102.086-.243.076-.353-.05-.175-.198-.375-.353-.659-.415.049.115.091.232.128.351a.52.52 0 01-.075.426.542.542 0 01-.375.233c-.177.028-.366.018-.484.192a.73.73 0 00-.121.548c.068.404.488.68.916.604.427-.077.829-.492.915-.948.047-.243.135-.334.297-.306.162.028.212.154.167.392-.016.078-.04.154-.06.239.14.053.276.099.407.156 1.586.7 2.56 1.875 2.896 3.54.02.102.062.138.166.15.708.081 1.073.632.867 1.295l-.188.592a1.203 1.203 0 01-.897.84.136.136 0 00-.084.042.128.128 0 00-.034.086c-.12.827-.617 1.387-1.35 1.776-.252.134-.506.265-.79.415.1.046.16.072.218.1 1.452.707 2.217 1.85 2.276 3.428.018.485-.347.834-.842.839-.291.003-.583 0-.872 0-.18 0-.283-.089-.28-.233.002-.144.101-.22.275-.221h.84c.272 0 .413-.14.414-.401.004-1.406-1.015-2.74-2.407-3.142a.295.295 0 00-.2.02c-1.303.696-2.604.669-3.913.013a.357.357 0 00-.243-.02A3.394 3.394 0 004.06 12.96c-.022.028-.042.058-.063.086-.106.14-.244.174-.359.091-.115-.082-.136-.22-.025-.345.238-.272.468-.559.747-.785.3-.243.652-.423.994-.638-.147-.084-.323-.174-.488-.28-.27-.175-.558-.335-.796-.546-.4-.355-.61-.82-.673-1.343-.011-.09-.05-.116-.129-.136a1.207 1.207 0 01-.91-.846c-.067-.206-.135-.413-.198-.62-.19-.617.178-1.176.832-1.26.122-.016.167-.05.194-.175.41-1.899 1.569-3.14 3.475-3.726.09-.027.122-.059.127-.152.033-.542.366-.886.912-.956.172-.022.198-.062.125-.218C7.75.943 7.637.808 7.447.757c-.13-.035-.22-.105-.214-.243.006-.145.114-.202.247-.23.039-.01.077-.02.114-.034l.502.001zM6.878 2.856c-1.274.287-2.43 1.255-2.951 2.477-.29.678-.417 1.376-.292 2.113.09.537.16 1.078.217 1.618.071.676.416 1.166 1.009 1.509.364.211.726.427 1.086.647.782.479 1.623.702 2.55.564.548-.081 1.035-.307 1.498-.598.344-.215.695-.42 1.053-.612.605-.323 1.038-.77 1.124-1.464.055-.445.087-.894.133-1.34.03-.3.102-.601.095-.9-.041-1.758-1.2-3.294-2.915-3.901-.153-.054-.239-.043-.352.083-.346.39-.776.598-1.323.5a1.235 1.235 0 01-.932-.695zm-3.56 5.75L3.1 6.79c-.372.033-.592.296-.505.616.068.253.15.502.24.748.079.223.243.368.485.453v-.001zM12.7 8.6a.728.728 0 00.476-.454c.085-.243.166-.486.235-.734.104-.383-.25-.666-.51-.612l-.2 1.802V8.6z" fill="#fff"/><path d="M6.891 15.749H3.856c-.608 0-.953-.33-.924-.923.015-.305.08-.607.14-.908.035-.173.16-.243.303-.2.134.04.178.148.147.318-.048.267-.102.535-.123.805-.025.321.118.453.447.453h6.132c.058-.003.115-.002.172.003.131.019.205.1.204.226 0 .12-.073.198-.196.22a.857.857 0 01-.155.005H6.891zM7.99 11.31a1.68 1.68 0 01-1.162-.465 1.587 1.587 0 01-.49-1.126.624.624 0 01.466-.624.21.21 0 00.104-.054.2.2 0 00.057-.1 1.03 1.03 0 01.58-.618c.177-.08.308-.049.375.083.066.132.007.243-.173.329-.273.13-.407.366-.368.653.02.128.081.246.176.337.096.091.218.15.35.167a.602.602 0 00.566-.213.57.57 0 00.1-.61c-.09-.23-.064-.353.09-.404.155-.052.274.026.352.253.034.099.077.153.189.184.276.077.45.334.448.623-.009.872-.755 1.587-1.66 1.585zM6.923 9.548l-.06-.005c-.017.077-.051.154-.048.229.021.605.555 1.087 1.19 1.081.633-.005 1.162-.5 1.173-1.1 0-.071-.045-.143-.07-.214l-.045.01c-.174.496-.518.8-1.063.802-.552.003-.9-.302-1.077-.803zm4.014-2.551c-.057.054-.115.148-.192.167-.071.017-.17-.036-.244-.078-.037-.02-.047-.086-.07-.131-.138-.275-.367-.427-.68-.423-.319.003-.548.162-.68.447-.01.023-.016.048-.027.07-.062.122-.177.17-.296.13a.235.235 0 01-.133-.121.222.222 0 01-.003-.177c.142-.401.425-.661.848-.769.281-.07.58-.04.84.087s.463.341.572.603c.022.05.035.103.065.195zm-4.864-.926c.243 0 .48.073.68.206.201.133.356.322.444.542.066.168.027.288-.11.344-.138.057-.25-.008-.323-.172a.725.725 0 00-.687-.461c-.305-.01-.566.173-.695.468-.073.167-.185.229-.323.178-.14-.05-.176-.178-.114-.344.087-.223.24-.416.442-.551a1.23 1.23 0 01.686-.21z" fill="#fff"/></svg>
